lib/healthicons/icons/outline/typography/7.svg

<svg fill="none" height="48" viewBox="0 0 48 48" width="48" xmlns="http://www.w3.org/2000/svg"><path clip-rule="evenodd" d="m13 12c0-1.6569 1.3431-3 3-3h16c1.173 0 2.2383.68361 2.7271 1.7499.4888 1.0662.3113 2.3196-.4543 3.2082-1.7077 1.9822-4.2706 5.6009-6.5581 9.8016-2.303 4.2292-4.1803 8.7831-4.7459 12.6721-.2385 1.6396-1.761 2.7754-3.4006 2.537-1.6396-.2385-2.7754-1.761-2.537-3.4006.7143-4.9109 2.9704-10.1903 5.4141-14.6779 1.1555-2.122 2.3839-4.1229 3.57-5.8903h-10.0153c-1.6569 0-3-1.3431-3-3zm3-1c-.5523 0-1 .4477-1 1s.4477 1 1 1h11.9223c.3745 0 .7175.2092.889.542.1715.3329.1426.7336-.0747 1.0385-1.4619 2.0506-3.0596 4.5572-4.5348 7.2663-2.3968 4.4013-4.5266 9.4389-5.1914 14.0093-.0795.5465.2991 1.054.8457 1.1335.5465.0795 1.054-.2991 1.1335-.8457.6152-4.2297 2.6188-9.0255 4.9686-13.3407 2.3448-4.3058 4.9857-8.0453 6.7994-10.1505.2552-.2962.3144-.714.1514-1.0694-.1629-.3554-.518-.5833-.909-.5833z" fill="#333" fill-rule="evenodd"/></svg>

<svg width="48" height="48" viewBox="0 0 48 48" fill="none" xmlns="http://www.w3.org/2000/svg">
<path fill-rule="evenodd" clip-rule="evenodd" d="M13 12C13 10.3431 14.3431 9 16 9H32C33.173 9 34.2383 9.68361 34.7271 10.7499C35.2159 11.8161 35.0384 13.0695 34.2728 13.9581C32.5651 15.9403 30.0022 19.559 27.7147 23.7597C25.4117 27.9889 23.5344 32.5428 22.9688 36.4318C22.7303 38.0714 21.2078 39.2072 19.5682 38.9688C17.9286 38.7303 16.7928 37.2078 17.0312 35.5682C17.7455 30.6573 20.0016 25.3779 22.4453 20.8903C23.6008 18.7683 24.8292 16.7674 26.0153 15H16C14.3431 15 13 13.6569 13 12ZM16 11C15.4477 11 15 11.4477 15 12C15 12.5523 15.4477 13 16 13H27.9223C28.2968 13 28.6398 13.2092 28.8113 13.542C28.9828 13.8749 28.9539 14.2756 28.7366 14.5805C27.2747 16.6311 25.677 19.1377 24.2018 21.8468C21.805 26.2481 19.6752 31.2857 19.0104 35.8561C18.9309 36.4026 19.3095 36.9101 19.8561 36.9896C20.4026 37.0691 20.9101 36.6905 20.9896 36.1439C21.6048 31.9142 23.6084 27.1184 25.9582 22.8032C28.303 18.4974 30.9439 14.7579 32.7576 12.6527C33.0128 12.3565 33.072 11.9387 32.909 11.5833C32.7461 11.2279 32.391 11 32 11H16Z" fill="#333333"/>
</svg>
